icons/shield-cross-outline.svg

<svg xmlns="http://www.w3.org/2000/svg" width="24" height="24" viewBox="0 0 24 24">
  <path d="M12,1 C15.5169906,1 18.3742467,1.71431401 20.5547002,3.16794971 C20.8328989,3.35341548 21,3.66564681 21,4 L21,4 L21,12.9096249 C20.9981658,16.3441397 19.0497159,19.5919666 16.0272136,21.1044272 L16.0272136,21.1044272 L12.4472136,22.8944272 C12.1656861,23.0351909 11.8343139,23.0351909 11.5527864,22.8944272 L11.5527864,22.8944272 L7.97250014,21.104284 C4.95028406,19.5919666 3.00183418,16.3441397 3,12.9090909 L3,12.9090909 L3,4 C3,3.66564681 3.16710114,3.35341548 3.4452998,3.16794971 C5.62575334,1.71431401 8.48300939,1 12,1 Z M11.9999999,3 C9.15029309,3 6.85199016,3.50672557 5.09245014,4.5016552 L5.09245014,4.5016552 L4.99999986,4.555 L4.99999986,12.9085569 C5.00138724,15.5066311 6.43129904,17.976644 8.636365,19.1941391 L8.636365,19.1941391 L8.8672136,19.3155728 L11.9999999,20.881 L15.1325001,19.315716 C17.3905248,18.1858001 18.8956579,15.7647258 18.9947875,13.1773026 L18.9947875,13.1773026 L18.9999999,12.9090909 L18.9999999,4.556 L18.9075499,4.5016552 C17.2406172,3.55909028 15.0901411,3.0546919 12.4453733,3.00420832 L12.4453733,3.00420832 Z M10.6128994,9.20970461 L10.7071068,9.29289322 L12,10.585 L13.2928932,9.29289322 C13.6834175,8.90236893 14.3165825,8.90236893 14.7071068,9.29289322 C15.0675907,9.65337718 15.0953203,10.2206082 14.7902954,10.6128994 L14.7071068,10.7071068 L13.415,12 L14.7071068,13.2928932 C15.0976311,13.6834175 15.0976311,14.3165825 14.7071068,14.7071068 C14.3466228,15.0675907 13.7793918,15.0953203 13.3871006,14.7902954 L13.2928932,14.7071068 L12,13.415 L10.7071068,14.7071068 C10.3165825,15.0976311 9.68341751,15.0976311 9.29289322,14.7071068 C8.93240926,14.3466228 8.90467972,13.7793918 9.20970461,13.3871006 L9.29289322,13.2928932 L10.585,12 L9.29289322,10.7071068 C8.90236893,10.3165825 8.90236893,9.68341751 9.29289322,9.29289322 C9.65337718,8.93240926 10.2206082,8.90467972 10.6128994,9.20970461 Z"/>
</svg>

<svg xmlns="http://www.w3.org/2000/svg" viewBox="0 0 24 24">
  <path d="M12 1c3.52 0 6.37.71 8.55 2.17A1 1 0 0 1 21 4v8.91a9.23 9.23 0 0 1-4.97 8.2l-3.58 1.78a1 1 0 0 1-.9 0L7.97 21.1A9.23 9.23 0 0 1 3 12.9V4a1 1 0 0 1 .45-.83C5.63 1.7 8.48 1 12 1zm0 2c-2.85 0-5.15.5-6.9 1.5l-.1.05v8.36c0 2.6 1.43 5.07 3.64 6.28l.23.13L12 20.88l3.13-1.56A7.22 7.22 0 0 0 19 13.18l.01-.27V4.56l-.1-.06c-1.66-.94-3.81-1.45-6.45-1.5zm-1.39 6.21.1.08L12 10.6l1.3-1.3a1 1 0 0 1 1.49 1.32l-.08.1L13.4 12l1.3 1.3a1 1 0 0 1-1.32 1.49l-.1-.08L12 13.4l-1.3 1.3a1 1 0 0 1-1.49-1.32l.08-.1L10.6 12l-1.3-1.3a1 1 0 0 1 1.32-1.49z"/>
</svg>
